svg/24/forest--filled.svg

<svg width="24" height="24" viewBox="0 0 24 24" fill="currentColor" xmlns="http://www.w3.org/2000/svg"><path d="M21.0624 18C21.8322 18 22.3133 17.1667 21.9284 16.5L19.9077 13H20.1961C20.6729 13 21.0389 12.6804 21.1571 12.2787C21.2297 12.0317 21.2087 11.7538 21.0622 11.5L15.866 2.5C15.4811 1.83333 14.5189 1.83333 14.134 2.5L12.866 4.69615L16.3612 10.75C16.9465 11.7638 16.7308 12.9317 16.0388 13.6912L17.2275 15.75C17.5677 16.3392 17.6372 16.9805 17.5 17.5635C17.4997 17.5646 17.4995 17.5657 17.4992 17.5669C17.4639 17.7157 17.4152 17.8607 17.354 18H21.0624Z"/><path d="M15.1989 17.9911C15.2004 17.9909 15.2018 17.9907 15.2032 17.9905C15.889 17.8965 16.2893 17.125 15.9284 16.5L13.9077 13H14.1961C14.2557 13 14.3136 12.995 14.3695 12.9855C14.7605 12.9188 15.0537 12.6302 15.1571 12.2787C15.2297 12.0317 15.2087 11.7538 15.0622 11.5L9.86597 2.5C9.48107 1.83333 8.51882 1.83333 8.13392 2.5L2.93777 11.5C2.55287 12.1667 3.034 13 3.8038 13H4.09272L2.07199 16.5C1.68709 17.1667 2.16821 18 2.93801 18H15.0624C15.109 18 15.1546 17.9969 15.1989 17.9911Z"/><path d="M6.5 20V19.5H11.5V20C11.5 21.1046 10.6046 22 9.5 22H8.5C7.39543 22 6.5 21.1046 6.5 20Z"/><path d="M12.5 20V19.5H17.5V20C17.5 21.1046 16.6046 22 15.5 22H14.5C13.3954 22 12.5 21.1046 12.5 20Z"/></svg>

<svg xmlns="http://www.w3.org/2000/svg" width="24" height="24" fill="currentColor" viewBox="0 0 24 24">
  <path d="M21.062 18a1 1 0 0 0 .866-1.5l-2.02-3.5h.288a.997.997 0 0 0 .866-1.5l-5.196-9a1 1 0 0 0-1.732 0l-1.268 2.196 3.495 6.054a2.491 2.491 0 0 1-.322 2.941l1.188 2.059c.34.59.41 1.23.273 1.814v.003a2.527 2.527 0 0 1-.146.433h3.708Zm-5.863-.009h.004a1 1 0 0 0 .725-1.491l-2.02-3.5h.288a1 1 0 0 0 .866-1.5l-5.196-9a1 1 0 0 0-1.732 0l-5.196 9a1 1 0 0 0 .866 1.5h.289l-2.021 3.5a1 1 0 0 0 .866 1.5h12.124c.047 0 .093-.003.137-.009ZM6.5 20v-.5h5v.5a2 2 0 0 1-2 2h-1a2 2 0 0 1-2-2Zm6 0v-.5h5v.5a2 2 0 0 1-2 2h-1a2 2 0 0 1-2-2Z"/>
</svg>
